!!!!SEGMENT: pl-wtm--r-92-n--002_noskowski-zygmunt--bajki-dzieci-i-zaby.krn
!!!cenid: 18xx:2133
!!!COM: Noskowski, Zygmunt
!!!COM-rismID: pe106604
!!!CDT: 1846/05/02-1909/07/23
!!!CNT: Polish
!!!GTL: Bajki
!!!OTL: Dzieci i żaby
!!!OMV: 002
!!!PDT: 1875
!!!AGN: Secular
!!!SMS-siglum: PL-Wtm
!!!SMS-shelfmark: R 92/N
!!!SMS-shelfwork: 001-002 G
!!!SMS-variant:
!!!SMS-altvar:
!!!NIFC-rismSourceID: 1001084153
!!!NIFC-rismChildID: 1001084153
!!!NIFC-islandoraID:
!!!URL-pdf-islandora:
!!!URL-scan:
!!!ONB-nifc:
!!!AIN: 1 piano 1 vox
!!!key:
!!!OMD:
!!!OMD-mod: Allegretto
**kern	**kern	**fing	**dynam	**mod-dynam	**kern	**dynam	**text	**mod-text
*part2	*part2	*part2	*part2	*part2	*part1	*part1	*part1	*part1
*staff3	*staff2	*	*	*	*staff1	*	*staff1	*staff1
*Ipiano	*Ipiano	*	*	*	*Ivox	*	*	*
*I"[Piano]	*I"[Piano]	*	*	*	*I"[Voce]	*	*	*
*mI"Pianoforte	*mI"Pianoforte	*	*	*	*mI"Voce	*	*	*
*I'pf	*I'pf	*	*	*	*I'V	*	*	*
*clefF4	*clefG2	*	*	*	*clefG2	*	*	*
*k[f#c#]	*k[f#c#]	*	*	*	*k[f#c#]	*	*	*
*D:	*D:	*	*	*	*D:	*	*	*
*M9/8	*M9/8	*	*	*	*M9/8	*	*	*
=1	=1	=1	=1	=1	=1	=1	=1	=1
!LO:TX:t=P:all\right:problem	!LO:TX:a:t=Allegretto:mod=	!	!	!	!LO:TX:a:t=Allegretto:mod=	!	!	!
8%9r	8a/	.	p	p	8%9r	.	.	.
.	8r	.	.	.	.	.	.	.
.	8r	.	.	.	.	.	.	.
.	8a/	.	.	.	.	.	.	.
.	8r	.	.	.	.	.	.	.
.	8b-X 8a/	.	.	.	.	.	.	.
.	8b- 8g#X/	.	.	.	.	.	.	.
.	8r	.	.	.	.	.	.	.
.	8a/	.	.	.	.	.	.	.
=2	=2	=2	=2	=2	=2	=2	=2	=2
8%9r	8r	.	.	.	8%9r	.	.	.
.	8r	.	.	.	.	.	.	.
.	8a/	.	.	.	.	.	.	.
.	8a/	.	.	.	.	.	.	.
.	8r	.	.	.	.	.	.	.
.	8b-X 8a/	.	.	.	.	.	.	.
.	8b- 8g#X/	.	.	.	.	.	.	.
.	8r	.	.	.	.	.	.	.
.	8a/	.	.	.	.	.	.	.
=3	=3	=3	=3	=3	=3	=3	=3	=3
!	!	!	!	!	!	!LO:DY:b	!	!
4D\	4a 4f#/	.	p	p	8a/	p	Ko-	Ko-
.	.	.	.	.	8g/	.	-ło	-ło
8r	8r	.	.	.	8f#/	.	je-	je-
4r	4r	.	.	.	8f#/	.	-zio-	-zio-
.	.	.	.	.	8a/	.	-ra,	-ra,
8r	8r	.	.	.	8dd\	.	z wie-	z wie-
4D\	4b 4g/	.	.	.	4b/	.	-czo-	-czo-
!LO:TX:t=P:problem=brak wpisanej pauzy	!	!	!	!	!	!	!	!
8ryy	8r	.	.	.	8g/	.	-ra	-ra,
!LO:PB:g=original	!	!	!	!	!	!	!	!
=4	=4	=4	=4	=4	=4	=4	=4	=4
4D\	4a 4f#/	.	.	.	4f#/	.	Chło-	chło-
8r	8r	.	.	.	8g/	.	-pcy	-pcy
4r	8r	.	.	.	8a/	.	w ko-	w ko-
.	8d'/L	.	.	.	8d/	.	-ło	-ło
8r	8eJ 8c#'/	.	.	.	8e/	.	bie-	bie-
4r	8f#L 8d'/	.	.	.	(8f#/L	.	-ga-	-ga-
.	8g 8e'/	.	.	.	8g/J)	.	.	.
8r	8aJ 8f#'/	.	.	.	8a/	.	-ły,	-ły
=5	=5	=5	=5	=5	=5	=5	=5	=5
4AA/	8cc# 8e\	.	.	.	4cc#\	.	I	i
.	8r	.	.	.	.	.	.	.
8r	8dd 8b'\	.	.	.	8b\	.	na	na
4r	8eeL 8cc#'\	.	.	.	4.a/	.	ża-	ża-
.	8dd 8b'\	.	.	.	.	.	.	.
8r	8cc#J 8a'\	.	.	.	.	.	.	.
4AA/	8bL 8g#X'/	.	.	.	(8b\L	.	-by	-by
.	8a 8f#'/	.	.	.	8cc#\J)	.	.	.
8r	8g#J 8e'/	.	.	.	8dd\	.	czu-	czu-
=6	=6	=6	=6	=6	=6	=6	=6	=6
4AA/	4.a 4.e 4.c#/	.	.	.	4.ee\	.	-wa-	-wa-
8r	.	.	.	.	.	.	.	.
4r	8a/	.	.	.	4a/	.	-ły	-ły.
.	8r	.	.	.	.	.	.	.
8r	8a/	.	.	.	8r	.	.	.
4r	8b-X 8g#X/	.	.	.	4r	.	.	.
.	8r	.	.	.	.	.	.	.
8r	8a/	.	.	.	8r	.	.	.
=7	=7	=7	=7	=7	=7	=7	=7	=7
4D\	8aL 8f#'/	.	.	.	[4.a/	.	Sko-	Sko-
.	8gn 8e'/	.	.	.	.	.	.	.
8r	8f#J 8d'/	.	.	.	.	.	.	.
4r	8f#L 8d'/	.	.	.	4a/]	.	.	.
.	8a 8f#'/	.	.	.	.	.	.	.
8r	8ddJ 8f#'/	.	.	.	8dd\	.	-ro	-ro
4D\	4b 4g/	.	.	.	4b\	.	któ-	któ-
8r	8g 8e/	.	.	.	8g/	.	-ra	-ra
!!LO:LB:g=original	!	!	!	!	!	!
=8	=8	=8	=8	=8	=8	=8	=8	=8
4D\	4f# 4d/	.	.	.	4f#/	.	wy-	wy-
8r	8g 8e/	.	.	.	8g/	.	-pły-	-pły-
8r	8aL 8f#/	.	.	.	4.a/	.	-wa-	-wa-
8r	8d'/	.	.	.	.	.	.	.
(16A\LL	8eJ 8c#'/	.	.	.	.	.	.	.
!LO:SIC:s=16G\JJ):v	!	!	!	!	!	!	!	!
16G\JJ	.	.	.	.	.	.	.	.
!LO:SIC:s=8F#^\L:v	!	!	!	!	!	!	!	!
8F#^\L)	8f#L 8d'/	.	.	.	8d/	.	-ła,	-ła,
8E'\	8g 8e'/	.	.	.	8r	.	.	.
8D'\J	8aJ 8f#'/	.	.	.	8r	.	.	.
=9	=9	=9	=9	=9	=9	=9	=9	=9
4BB#X^>/	4a 4f#^>/	.	.	<	8r	.	.	.
.	.	.	.	.	8r	.	.	.
!	!	!	!	!	!	!LO:HP:a:t=cres	!	!
8r	8r	.	.	.	8a/	<	Ka-	ka-
!	!	!	!LO:HP:t=cres	!LO:HP:t=cres	!	!	!	!
4C#^>/	4g#X 4f#^/	.	<	.	(8g#X/L	.	-mie-	-mie-
.	.	.	.	.	8a/J)	.	.	.
8r	8r	.	[	.	8b/	.	-niem	-niem
4C# 4CC#^>/	4g# 4e#X 4B^/	.	.	[	8cc#\	[	w łeb	w łeb
.	.	.	.	.	8dd\	.	dos-	do-
8r	8r	.	.	.	8cc#\	.	-ta-	-sta-
=10	=10	=10	=10	=10	=10	=10	=10	=10
*	*	*	*^	*^	*	*	*	*
*	*	*	*	*^	*	*^	*	*	*	*
!	!	!	!LO:DY:a=1	!	!	!LO:DY:a=1	!	!	!	!LO:DY:a	!	!
8AA 8AAA/	8ff# 8cc# 8f#\	.	sfz	f	sfz	.	.	sfz	2.ff#\	f	-wa-	-wa-
*	*	*	*v	*v	*v	*	*	*	*	*	*	*
*	*	*	*	*v	*v	*v	*	*	*	*
8r	8r	.	.	.	.	.	.	.
8r	8ff#'\	.	.	.	.	.	.	.
(16c#\LL	(16cc#\LL	.	.	.	.	.	.	.
16d\	16dd\	.	.	.	.	.	.	.
16c#\	16cc#\	.	.	.	.	.	.	.
16B\	16b\	.	.	.	.	.	.	.
16A\	16a\	.	.	.	.	.	.	.
16G#X\JJ	16g#X\JJ)	.	.	.	.	.	.	.
8F#\)	8f#/	.	.	.	4f#/	.	-ła.	-ła.
8r	8r	.	.	.	.	.	.	.
*	*	*	*^	*^	*	*	*	*
!	!	!	!LO:DY:a	!LO:DY:b=1	!	!LO:DY:b=1	!	!	!	!
8C# 8CC#/	8g# 8e#X 8B/	.	sfz	sfz	.	sfz	8r	.	.	.
=11	=11	=11	=11	=11	=11	=11	=11	=11	=11	=11
!	!	!	!LO:DY:a	!LO:DY:b=1	!	!LO:DY:b=1	!	!	!	!
8FF# 8FFF#/	8a 8f# 8A/	.	sfz	sfz	.	sfz	8%9r	.	.	.
*	*	*	*v	*v	*	*	*	*	*	*
*	*	*	*	*v	*v	*	*	*	*
8r	8r	.	.	.	.	.	.	.
8r	8cc#'\	.	.	.	.	.	.	.
(16A\LL	(16a/LL	.	.	.	.	.	.	.
16G#X\	16g#X/	.	.	.	.	.	.	.
16F#\	16f#/	.	.	.	.	.	.	.
16G#\	16g#/	.	.	.	.	.	.	.
16A\	16a/	.	.	.	.	.	.	.
16F#\JJ	16f#/JJ	.	.	.	.	.	.	.
8C#/)	8c#/)	.	.	.	.	.	.	.
8r	8r	.	.	.	.	.	.	.
!	!	!	!LO:DY:a	!LO:DY:a	!	!	!	!
8C# 8CC#/	8g# 8e#X 8B/	.	sfz	sfz	.	.	.	.
!!LO:LB:g=original
=12	=12	=12	=12	=12	=12	=12	=12	=12
8FF# 8FFF#/	16cc#LL 16a 16A^>/	.	sfz	sfz	8%9r	.	.	.
.	(16g#X/	.	.	.	.	.	.	.
8r	16f#/	.	.	.	.	.	.	.
.	16g#/	.	.	.	.	.	.	.
(16A\LL	16a/	.	.	.	.	.	.	.
16F#\JJ	16f#/JJ	.	.	.	.	.	.	.
8C#/)	8c#/)	.	.	.	.	.	.	.
8r	8r	.	.	.	.	.	.	.
*	*	*	*^	*^	*	*	*	*
!	!	!	!LO:DY:a	!LO:DY:a=2	!	!LO:DY:a=2	!	!	!	!
8C#/	8g# 8e#X 8d/	.	sfz	sfz	.	sfz	.	.	.	.
!	!	!	!LO:DY:a	!LO:DY:a=2	!	!LO:DY:a=2	!	!	!	!
8FF#/	8a 8f# 8c#/	.	sfz	sfz	.	sfz	.	.	.	.
8r	8r	.	.	.	.	.	.	.	.	.
!	!	!	!LO:DY:a	!LO:DY:a=2	!	!LO:DY:a=2	!	!	!	!
8C#/	8e# 8d 8G#X/	.	sfz	sfz	.	sfz	.	.	.	.
*	*	*	*v	*v	*	*	*	*	*	*
*	*	*	*	*v	*v	*	*	*	*
=13	=13	=13	=13	=13	=13	=13	=13	=13
*ped	*	*	*	*	*	*	*	*
(8.FF#/L	[4.f# [4.c# [4.A/	.	.	.	8%9r	.	.	.
16AA/L	.	.	.	.	.	.	.	.
16BB#X/	.	.	.	.	.	.	.	.
16C#/JJ	.	.	.	.	.	.	.	.
8F#\)	16f#]LL 16c#] 16A/]	.	.	.	.	.	.	.
.	(16A/	1	.	.	.	.	.	.
8r	16B#X/	2	.	.	.	.	.	.
.	16c#/	3	.	.	.	.	.	.
2r	16f#/	4	.	.	.	.	.	.
.	16a/JJ	1	.	.	.	.	.	.
.	16b#X\LL	.	.	.	.	.	.	.
.	16cc#\	.	.	.	.	.	.	.
.	16ff#\	.	.	.	.	.	.	.
.	16aa\	1	.	.	.	.	.	.
.	16bb#X\	.	.	.	.	.	.	.
.	16ccc#\JJ	.	.	.	.	.	.	.
=14	=14	=14	=14	=14	=14	=14	=14	=14
*Xped	*	*	*	*	*	*	*	*
8r;	8fff#;\)	.	.	.	8r;	.	.	.
8r	8r	.	.	.	8r	.	.	.
8r;	8r;	.	.	.	8r;	.	.	.
!	!LO:MO:mod=!LO&colon;TX&colon;a&colon;B&colon;t=Meno mosso	!	!	!	!LO:MO:mod=!LO&colon;TX&colon;a&colon;B&colon;t=Meno mosso	!	!	!
!	!LO:TX:a:t=meno mosso	!	!	!	!LO:TX:a:t=meno mosso	!LO:DY:b	!	!
4r	4r	.	.	.	8f#/	p	Je-	Je-
.	.	.	.	.	8f#/	.	-dna	-dna
8r	8r	.	.	.	8g#X/	.	z nich	z nich,
4r	4r	.	.	.	8a/	.	śmiel-	śmiel-
.	.	.	.	.	8g#/	.	-széj	-szej
8r	8r	.	.	.	8a/	.	na-	na-
!!LO:LB:g=original
=15	=15	=15	=15	=15	=15	=15	=15	=15
8%9r	4r	.	.	.	([4.a/	.	-tu-	-tu-
.	8r	.	.	.	.	.	.	.
.	8aL 8f#'/	.	p	p	4a/]	.	.	.
.	8a 8f#'/	.	.	.	.	.	.	.
.	8bJ 8g#X'/	.	.	.	8b/)	.	.	.
.	8cc#L 8a'/	.	.	.	4cc#\	.	-ry,	-ry,
.	8a 8f#'/	.	.	.	.	.	.	.
.	8bJ 8g#'/	.	.	.	8r	.	.	.
=16	=16	=16	=16	=16	=16	=16	=16	=16
8%9r	4cc# 4a/	.	.	.	4r	.	.	.
.	8b 8g#X/	.	.	.	8r	.	.	.
.	4a 4f#/	.	.	.	8a/	.	Jed-	je-
.	.	.	.	.	8a/	.	-na	-dna
.	8r	.	.	.	8b/	.	z nich	z nich,
.	4r	.	.	.	8cc#\	.	śmiel-	śmiel-
.	.	.	.	.	8a/	.	-széj	-szej
.	8r	.	.	.	8b/	.	na-	na-
=17	=17	=17	=17	=17	=17	=17	=17	=17
4r	4r	.	.	.	4cc#\	.	-tu-	-tu-
8r	8r	.	.	.	8dd\	.	-ry,	-ry,
(2.A\	8cc#L 8a 8gn'\	.	p	p	[4.ee\	.	Wy-	wy-
.	8dd 8b 8g'\	.	.	.	.	.	.	.
.	8eeJ 8cc# 8g'\	.	.	.	.	.	.	.
.	8eeL 8cc# 8g'\	.	.	.	4ee\]	.	.	.
.	8dd 8b 8g'\	.	.	.	.	.	.	.
.	8cc#J 8a 8g'\	.	.	.	8ee\	.	-sta-	-sta-
=18	=18	=18	=18	=18	=18	=18	=18	=18
4AA/)	4dd 4b 4g\	.	.	.	4dd\	.	-wi-	-wi-
8r	8r	.	.	.	8b\	.	-wszy	-wszy
(2.A\	8bL 8g 8d'/	.	.	.	([4.b\	.	łeb	łeb
.	8a#X 8f# 8d'/	.	.	.	.	.	.	.
.	8bJ 8g 8d'/	.	.	.	.	.	.	.
.	8bL 8g 8d'/	.	.	.	8b\L]	.	.	.
.	8an 8f# 8d'/	.	.	.	8cc#\J)	.	.	.
.	8gJ 8e 8d'/	.	.	.	8dd\	.	do	do
!!LO:LB:g=original
=19	=19	=19	=19	=19	=19	=19	=19	=19
4AA/)	4a 4f# 4d/	.	.	.	(4dd\	.	gó-	gó-
8r	8r	.	.	.	8a/)	.	.	.
[4.AA/	8aL 8f# 8c# 8A'>/	.	>	>	4f#/	.	-ry	-ry,
.	8a 8f# 8A'>/	.	.	.	.	.	.	.
.	8gJ 8e 8A'>/	.	.	.	8r	.	.	.
8AA/]	8f#L 8d 8A'>/	.	.	.	4r	.	.	.
8r	8e 8c# 8A'>/	.	.	.	.	.	.	.
8r	8dJ 8B 8A'>/	.	]	]	8r	.	.	.
=20	=20	=20	=20	=20	=20	=20	=20	=20
*	*^	*	*	*	*	*	*	*
!	!	!	!	!	!	!	!LO:DY:b	!	!
[4.AA [4.AAA/	[4.e [4.c#/	(4.A\	.	pp	pp	(8a/L	pp	Rze-	rze-
.	.	.	.	.	.	8b/	.	.	.
.	.	.	.	.	.	8a/J)	.	.	.
4AA] 4AAA;/]	4e] 4c#;/]	4G;\)	.	.	.	4e;/	.	-kła:	-kła:
8r;	8r;	2ryyyy	.	.	.	8r;	.	.	.
!	!LO:MO:mod=!LO&colon;TX&colon;a&colon;B&colon;t=Riten.	!	!	!	!	!	!	!	!
!	!	!	!	!	!	!LO:MO:mod=!null:null	!	!	!
!	!LO:TX:b:t=riten	!	!	!	!	!LO:TX:b:t=riten	!	!	!
4r	8a'/L	.	.	f	f	4r	.	.	.
.	8b'/	.	.	.	.	.	.	.	.
8r	8a'^>/J	.	.	.	.	8r	.	.	.
*	*v	*v	*	*	*	*	*	*	*
=21	=21	=21	=21	=21	=21	=21	=21	=21
!!!OMD:
!!!OMD-mod: Moderato
!	!LO:TX:a:t=Moderato:mod=	!	!	!	!LO:TX:a:t=Moderato:mod=	!	!	!
8%9r	8a/	.	p	p	8%9r	.	.	.
.	8r	.	.	.	.	.	.	.
.	8r	.	.	.	.	.	.	.
.	8a/	.	.	.	.	.	.	.
.	8r	.	.	.	.	.	.	.
.	8b-X 8a/	.	.	.	.	.	.	.
.	8b- 8g#X/	.	.	.	.	.	.	.
.	8r	.	.	.	.	.	.	.
.	8b- 8g#/	.	.	.	.	.	.	.
=22	=22	=22	=22	=22	=22	=22	=22	=22
8%9r	8r	.	.	.	8%9r	.	.	.
.	8r	.	.	.	.	.	.	.
.	8a/	.	.	.	.	.	.	.
.	8a/	.	.	.	.	.	.	.
.	8r	.	.	.	.	.	.	.
.	8b-X 8a/	.	.	.	.	.	.	.
.	8b- 8g#X/	.	.	.	.	.	.	.
.	8r	.	.	.	.	.	.	.
.	8a/	.	.	.	.	.	.	.
!!LO:PB:g=original	!	!	!	!	!	!
=23	=23	=23	=23	=23	=23	=23	=23	=23
!	!	!	!	!	!LO:MO:mod=!LO&colon;TX&colon;a&colon;B&colon;t=Sostenuto	!	!	!
!	!LO:MO:mod=!LO&colon;TX&colon;a&colon;B&colon;t=Sostenuto	!	!	!	!	!	!	!
!	!null	!	!	!	!	!	!	!
!	!	!	!	!	!LO:TX:a:t=sostenuto	!LO:DY:b	!	!
4D\	8aL 8f#'/	.	p	p	4a/	p	Chłop-	Chło-
!	!LO:MO:mod=!null:null	!	!	!	!	!	!	!
!	!LO:TX:b:t=sostenuto	!	!	!	!	!	!	!
.	8g 8e'/	.	.	.	.	.	.	.
8r	8f#J 8d'/	.	.	.	8r	.	.	.
4r	8f#L 8d'/	.	.	.	8a/	.	-cy,	-pcy,
.	8a 8f#'/	.	.	.	8r	.	.	.
8r	8ddJ 8f#'/	.	.	.	8a/	.	prze-	prze-
4D\	8b-X 8g'/	.	.	.	8b-X/	.	-stań-	-stań-
.	8r	.	.	.	8r	.	.	.
8r	8g 8e'/	.	.	.	8b-/	.	-cie,	-cie,
=24	=24	=24	=24	=24	=24	=24	=24	=24
4D\	8f#'/	.	.	.	8a/	.	bo	bo
.	8r	.	.	.	8r	.	.	.
8r	8g 8e'/	.	.	.	8a/	.	się	się
8r	8aL 8f#'/	.	.	.	8a/	.	źle	źle
8r	8d'/	.	.	.	8r	.	.	.
(16A\LL	8eJ 8c#'/	.	.	.	8a/	.	ba-	ba-
16G\JJ	.	.	.	.	.	.	.	.
8F#\L)	8f#L 8d'/	.	.	.	8a/	.	-wi-	-wi-
8E'\	8g 8e'/	.	.	.	8r	.	.	.
8D'\J	8aJ 8f#'/	.	.	.	8a/	.	-cie,	-cie,
=25	=25	=25	=25	=25	=25	=25	=25	=25
4AA/	8cc# 8e'/	.	.	.	4r	.	.	.
.	8r	.	.	.	.	.	.	.
8r	8dd 8b'\	.	.	.	8r	.	.	.
4r	8eeL 8cc#'\	.	.	.	4a/	.	bo	bo
.	8dd 8b'\	.	.	.	.	.	.	.
8r	8cc#J 8a'\	.	.	.	8a/	.	się	się
4.E\	4.b 4.g#X 4.d/	.	.	.	(8b\L	.	źle	źle
.	.	.	.	.	8cc#\J)	.	.	.
.	.	.	.	.	8dd\	.	ba-	ba-
=26	=26	=26	=26	=26	=26	=26	=26	=26
[2.AA/	(>8bL 8gn 8d'/	.	.	.	([4.ee\	.	-wi-	-wi-
.	8cc# 8g 8e'/	.	.	.	.	.	.	.
.	8bJ 8g 8d'/)	.	.	.	.	.	.	.
.	4.a 4.g 4.c#/	.	.	.	8ee\L]	.	.	.
.	.	.	.	.	8cc#\	.	.	.
.	.	.	.	.	8b\J)	.	.	.
4AA/]	8a'/	.	.	.	4a/	.	-cie	-cie!
.	8r	.	.	.	.	.	.	.
8r	8a'/	.	.	.	8r	.	.	.
!!LO:LB:g=original
=27	=27	=27	=27	=27	=27	=27	=27	=27
4D\	8aL 8f#'/	.	.	.	[4.a/	.	Dla	Dla
.	8g 8e'/	.	.	.	.	.	.	.
8r	8f#J 8d'/	.	.	.	.	.	.	.
8r	8f#L 8d'/	.	.	.	4a/]	.	.	.
8c#'\L	8a 8f#'/	.	.	.	.	.	.	.
8B'\J	8ddJ 8f#'/	.	.	.	8dd\	.	was	was
8G'\L	8b 8g'/	.	.	.	(4b/	.	to	to
8B'\	8r	.	.	.	.	.	.	.
8c#'\J	8g 8e'/	.	.	.	8g/)	.	.	.
=28	=28	=28	=28	=28	=28	=28	=28	=28
(16d\LL	8f# 8d'/	.	.	.	4f#/	.	jest	jest
16B\J	.	.	.	.	.	.	.	.
8A\)	8r	.	.	.	.	.	.	.
8G'\J	8g 8e'/	.	.	.	8g/	.	i-	i-
8F#'\	8aL 8d'/	.	.	.	4.a/	.	-grasz-	-gra-
8r	8d'/	.	.	.	.	.	.	.
8E'\	8eJ 8c#'/	.	.	.	.	.	.	.
16D'/LL	8f#L 8d'/	.	<	<	4d/	.	-ką,	-szką,
16C#'/	.	.	.	.	.	.	.	.
16BB'/	8g 8d'/	.	.	.	.	.	.	.
16AA'/	.	.	.	.	.	.	.	.
16GG'/	8aJ 8f# 8d'/	.	.	.	8r	.	.	.
!	!	!	!LO:HP:t=cres	!LO:HP:t=cres	!	!	!	!
16FF#'/JJ	.	.	[	[	.	.	.	.
=29	=29	=29	=29	=29	=29	=29	=29	=29
*	*	*	*^	*^	*	*	*	*
*	*	*	*	*^	*	*^	*	*	*	*
!	!	!	!LO:DY:b=1	!LO:DY:a=2	!LO:DY:a=1	!LO:DY:b=1	!LO:DY:a=2	!LO:DY:a=1	!	!	!	!
!	!LO:T:n=2:a	!	!	!	!	!	!	!	!	!	!	!
!	!LO:T:n=1:b	!	!	!	!	!	!	!	!	!	!	!
[2.EE/	[2.b [2.g [2.d/	.	f	sfz	sfz	.	.	sfz	8r	.	.	.
*	*	*	*v	*v	*v	*	*	*	*	*	*	*
*	*	*	*	*v	*v	*v	*	*	*	*
.	.	.	.	.	8r	.	.	.
!	!	!	!	!	!	!LO:DY:a	!	!
.	.	.	.	.	8b\	f	nam	nam
.	.	.	.	.	([4.ff#\	.	i-	i-
8EE/]	4.b] 4.g] 4.d/]	.	.	.	8ff#\L]	.	.	.
8r	.	.	.	.	8ee\	.	.	.
8r	.	.	.	.	8dd\J)	.	.	.
=30	=30	=30	=30	=30	=30	=30	=30	=30
!	!LO:T:n=2:a	!	!	!	!	!	!	!
!	!LO:T:n=1:b	!	!	!	!	!	!	!
[2.E\	[2.b [2.g [2.d/	.	p	p	8b\	.	-dzie	-dzie,
.	.	.	.	.	8r	.	.	.
.	.	.	.	.	8b\	p	nam	nam
.	.	.	.	.	([4.dd\	.	i-	i-
8E\]	8b] 8g] 8d/]	.	.	.	8dd\L]	.	.	.
8r	8r	.	.	.	8b\	.	.	.
8r	8r	.	.	.	8g\J)	.	.	.
!!LO:LB:g=original
=31	=31	=31	=31	=31	=31	=31	=31	=31
[2.AA/	8aL 8f# 8d'/	.	.	.	8f#/	.	-dzie	-dzie,
.	8a 8f#'/	.	.	.	8r	.	.	.
.	8aJ 8g 8e'/	.	.	.	8g/	.	nam	nam
!	!LO:MO:mod=!LO&colon;TX&colon;a&colon;B&colon;t=Rallent.	!	!	!	!LO:MO:mod=!LO&colon;TX&colon;a&colon;B&colon;t=Rallent.	!	!	!
!	!LO:TX:b:t=rallent	!	!	!	!LO:TX:a:t=rallent	!	!	!
.	8aL 8f# 8d'/	.	.	.	4.a/	.	i-	i-
.	8a 8e 8c#'/	.	.	.	.	.	.	.
.	8aJ 8f# 8d'/	.	.	.	.	.	.	.
4.AA/]	8aL 8f#'/	.	.	.	8b\	.	-dzie	-dzie
.	8a 8g 8e'/	.	.	.	8r	.	.	.
.	8aJ 8g 8A'/	.	.	.	8cc#\	.	o	o
=32	=32	=32	=32	=32	=32	=32	=32	=32
!!!OMD:
!!!OMD-mod: A tempo
!	!LO:TX:a:t=a tempo:mod=	!	!	!	!LO:TX:a:t=a tempo:mod=	!	!	!
8DD'/L	4a 4f#/	.	p	p	([2.dd\	.	ży-	ży-
8FF#'/	.	.	.	.	.	.	.	.
8AA'/J	8r	.	.	.	.	.	.	.
8D'/L	4a/	.	.	.	.	.	.	.
8C#'/	.	.	.	.	.	.	.	.
8D'/J	8r	.	.	.	.	.	.	.
8D'/L	8b-X 8a'/	.	.	.	4.dd\_	.	.	.
8C#'/	8r	.	.	.	.	.	.	.
8D'/J	8b- 8g#X'/	.	.	.	.	.	.	.
=33	=33	=33	=33	=33	=33	=33	=33	=33
8DD'/L	4a/	.	.	.	2.dd\_	.	.	.
8FF#'/	.	.	.	.	.	.	.	.
8AA'/J	8r	.	.	.	.	.	.	.
!	!	!	!LO:HP:t=diminuendo è rallent	!LO:HP:t=diminuendo è rallent	!	!	!	!
8D'/L	4a/	.	>	>	.	.	.	.
8C#'/	.	.	.	.	.	.	.	.
8D'/J	8r	.	.	.	.	.	.	.
8D'/L	8b-X 8a/	.	.	.	4.dd\])	.	.	.
8C#'/	8r	.	.	.	.	.	.	.
8D'/J	8b- 8g#X/	.	.	.	.	.	.	.
=34	=34	=34	=34	=34	=34	=34	=34	=34
8DD'/L	4a/	.	.	.	[2.d/	.	-cie	-cie.
8FF#'/	.	.	.	.	.	.	.	.
8AA'/J	8r	.	.	.	.	.	.	.
8D'/L	4a/	.	.	.	.	.	.	.
8C#'/	.	.	.	.	.	.	.	.
8D'/J	8r	.	.	.	.	.	.	.
8D'/L	4a 4g#X^>/	.	]	]	4d/]	.	.	.
8C#'/	.	.	.	.	.	.	.	.
8D'/J	8r	.	.	.	8r	.	.	.
=35	=35	=35	=35	=35	=35	=35	=35	=35
[2.D\	[2.a [2.f#/	.	pp	pp	4r	.	.	.
.	.	.	.	.	8r	.	.	.
.	.	.	.	.	4r	.	.	.
.	.	.	.	.	8r	.	.	.
4D;\]	4a] 4f#;/]	.	.	.	4r;	.	.	.
8r;	8r;	.	.	.	8r;	.	.	.
==	==	==	==	==	==	==	==	==
*-	*-	*-	*-	*-	*-	*-	*-	*-
!!!system-decoration: {s1,<s2,s3>}
!!!system-decoration-mod: s1,{(s2,s3)}
!!!filter-modern: sic -sq | shed -e "s/LO:DY:(a|b|rj)/LO:dy:$1/L" | shed -e "s/TX(.*):t=P:/tx$1:t=P:/LG" | modori -m | autostem -r | shed -e "s/yy//" | shed -k -e "s/\(y([^y])/($1/" | shed -e "s/-//B" | shed -e "s/^(\d+[\/\\]right)/$1yy/I; s/^(\d+[\/\\]left)/$1yy/I" | shed -k -e "s/[<>]//g" | shed -k -e "s/r[a-gA-G]+/r/D"
!!!RDF**kern: > = above
!!!RDF**kern: < = below
!!!ENC: Anastazja Marusiak
!!!END: 2021-05-12
!!!ENC: Kamil Watkowski
!!!END: 2021-06-06
!!!EED-modern: Antoni Szymański
!!!END-modern: 2022-08-22
!!!YEC: Copyright 2022 Narodowy Instytut Fryderyka Chopina (https://polishscores.org)
!!!YEM: License CC-BY-4.0 (https://creativecommons.org/licenses/by/4.0)
